X: 428
T: Valse No. 1	 Op. 69
C: Fryderyk Chopin
%%abc-version 2.0
%%abcx-abcm2ps-target-version 5.9.1 (29 Sep 2008)
%%abc-creator hum2abc beta
%%abcx-conversion-date 2021/10/03 11:24:05
%%abc-edited-by Antoni Szymański
%%abc-edited-by Mateusz Mrugas
%%abcx-initial-encoding-date 2019-12-02
%%humdrum-veritas 477652777
%%humdrum-veritas-data 1991340453
%%linebreak <none>
%%barnumbers 0
L: 1/4
M: 3/4
N: Derived from 069-1a-Sam-001.krn
P: ŒUVRES POSTHUMES | POUR LE | PIANO | DE | FRÉD. CHOPIN
Q: "[quarter] = 138"
%%staves {1 2}
V: 1 clef=treble
V: 2 clef=bass
K: Ab
[V:1] e/=d/ [I:setbarnb 2]| 
[V:2] z | 
[V:1] (3_d/e/d/ c/d/f/e/ | 
[V:2] x[DA,][DA,] & F,3 | 
[V:1] d2c | 
[V:2] x[CG,][CG,] & =E,3 | 
[V:1] z=A/B/ (3c/e/d/ | 
[V:2] x[C_G,][CG,] & _E,3 | 
[V:1] c2B | 
[V:2] x[B,F,][B,F,] & D,3 | 
[V:1] B>A (3A/G/F/ | 
[V:2] x[B,F,][=B,F,] & =D,3 | 
[V:1] F2E | 
[V:2] x[CA,][CA,] & E,3 | 
[V:1] z{/E} g/f/e/d/ | 
[V:2] E,,[DB,E,][DG,E,] | 
[V:1] =B2c- | 
[V:2] A,,[CA,E,][CA,E,] | 
[V:1] c/d/b/a/f/d/ | 
[V:2] x[DA,][DA,] & F,3 | 
[V:1] d2c | 
[V:2] x[DG,][CG,] & =E,3 | 
[V:1] (5:4:5=A//B//_A//^G//A// (3c/e/f/ _g3//A// | 
[V:2] x[C_G,][CG,] & _E,3 | 
[V:1] {/=A}c2B | 
[V:2] x[CF,][B,F,] & D,3 | 
[V:1] B>A (3A/G/F/ | 
[V:2] x[B,F,][=B,F,] & =D,3 | 
[V:1] F2E | 
[V:2] E,,[CA,E,][CA,E,] | 
[V:1] (3E/F/E/ =D/E/[_d/F/][c/G/] | 
[V:2] E,,[DG,E,][DB,E,] | 
[V:1] A2e/=d/ | 
[V:2] A,,[CE,]z | 
[V:1] (3_d/e/d/ c/d/f/e/ | 
[V:2] x[DA,][DA,] & F,3 | 
[V:1] d2c | 
[V:2] x[DG,][CG,] & =E,3 | 
[V:1] z=A/B/c/{/e}d/ | 
[V:2] x[C_G,][CG,] & _E,3 | 
[V:1] c2B | 
[V:2] x[CF,][B,F,] & D,3 | 
[V:1] B>A (3A/G/F/ | 
[V:2] x[B,F,][=B,F,] & =D,3 | 
[V:1] F2E | 
[V:2] x[CA,][CA,] & E,3 | 
[V:1] z{/E} g/f/e/d/ | 
[V:2] E,,[DB,E,][DG,E,] | 
[V:1] =B2c- | 
[V:2] A,,[CA,E,][CA,E,] | 
[V:1] c/d/b/a/f/d/ | 
[V:2] x[DA,][DA,] & F,3 | 
[V:1] d2c | 
[V:2] x[DG,][CG,] & =E,3 | 
[V:1] (13:8:13=A//B//=A//^G//=A//B//=B//c//d//=d//e//=e//f// !wedge!_g/z//=A// | 
[V:2] x[C_G,][CG,] & _E,3 | 
[V:1] {/=A}c2B | 
[V:2] x[CF,][B,F,] & D,3 | 
[V:1] B>A (3A/G/F/ | 
[V:2] x[B,F,][=B,F,] & =D,3 | 
[V:1] F2E | 
[V:2] E,,[CA,E,][CA,E,] | 
[V:1] (3E/F/E/ =D/E/[_d/F/][c/G/] | 
[V:2] E,,[DB,E,][DB,E,] | 
[V:1] A2c/_c/ ||  
[V:2] A,,[CE,]z ||  
[V:1] (3B/=c/B/ =A/B/ B/b/ | 
[V:2] [F3A,3] & B,>=D!accent!D | 
[V:1] c'/b/g/e/B | 
[V:2] [E3G,3] & z>B,!accent!B, | 
[V:1] (3B/c/B/ =A/B/ B/b/ | 
[V:2] =D3 & A,>B,!accent!B, | 
[V:1] c'/>b/g/e/B | 
[V:2] E3 & zz/ B,/!accent!B, | 
[V:1] (3B/c/B/ =A/B/ B/b/ | 
[V:2] F3 & B,>=D!accent!D | 
[V:1] c'/>b/g/e/B | 
[V:2] E3 & zz/ B,/!accent!B, | 
[V:1] (3B/c/B/ =A/B/_a/g/ | 
[V:2] B,,[=D=A,][DB,] | 
[V:1] f>eG/A/ | 
[V:2] E,[EG,][EB,] | 
[V:1] (3B/c/B/ =A/B/ B//b3// | 
[V:2] F3 & B,>=D!accent!D | 
[V:1] !wedge!c'/z//b//g/e/B | 
[V:2] E3 & zz/ B,/!accent!B, | 
[V:1] (3B/c/B/ =A/B/ B//b3// | 
[V:2] =D3 & A,>B,B, | 
[V:1] !wedge!c'/z//b//g/e/B | 
[V:2] E3 & zz/ B,/B, | 
[V:1] (3B/c/B/ =A/B/ B//b3// | 
[V:2] F3 & B,>=DD | 
[V:1] !wedge!c'/z//b//g/e/B | 
[V:2] E3 & zz/ B,/!accent!B, | 
[V:1] (3B/c/B/ =A/B/_a/g/ | 
[V:2] B,,[=D=A,][DB,] | 
[V:1] f>=e_e/=d/ | 
[V:2] E,[EG,][EB,] | 
[V:1] (3_d/e/d/ c/d/f/e/ | 
[V:2] x[DA,][DA,] & F,3 | 
[V:1] d2c | 
[V:2] x[DG,][CG,] & =E,3 | 
[V:1] z=A/B/ c/{/e}d/ | 
[V:2] x[C_G,][CG,] & _E,3 | 
[V:1] c2B | 
[V:2] x[CF,][B,F,] & D,3 | 
[V:1] B>A (3A/G/F/ | 
[V:2] x[B,F,][=B,F,] & =D,3 | 
[V:1] F2E | 
[V:2] x[CA,][CA,] & E,3 | 
[V:1] z{/E} g/f/e/d/ | 
[V:2] E,,[DB,E,][DG,E,] | 
[V:1] =B2c- | 
[V:2] A,,[CA,E,][CA,E,] | 
[V:1] c/d/{/d}b/a/f/d/ | 
[V:2] x[DA,][DA,] & F,3 | 
[V:1] d2c | 
[V:2] x[DG,][CG,] & =E,3 | 
[V:1] (13:8:13=A//B//=A//^G//=A//B//=B//c//d//=d//e//=e//f// !wedge!_g/z//=A// | 
[V:2] x[C_G,][CG,] & _E,3 | 
[V:1] {/=A}c2B | 
[V:2] x[CF,][B,F,] & D,3 | 
[V:1] B>A (3A/G/F/ | 
[V:2] x[B,F,][=B,F,] & =D,3 | 
[V:1] F2E | 
[V:2] E,,[CA,E,][CA,E,] | 
[V:1] (3E/F/E/ =D/E/[_d/F/][c/G/] |[1 
[V:2] E,,[DB,E,][DB,E,] | 
[V:1] A2c/_c/ :|][2 
[V:2] A,,[CE,]z :|]  
[V:1] A2[fd] | 
[V:2] A,,[CE,]z | 
[V:1] [d2B2](3F/G/F/ & z!accent!D2 | 
[V:2] xG,2 & E,,G,E, | 
[V:1] [EC][cA][dB] | 
[V:2] A,,A,E, | 
[V:1] [B2G2](3F/G/F/ & z!accent!D2 | 
[V:2] xG,2 & E,,G,E, | 
[V:1] [EC][cA][fd] | 
[V:2] A,,A,E, | 
[V:1] [d2B2](3F/G/F/ & z!accent!D2 | 
[V:2] xG,2 & E,,G,E, | 
[V:1] [EC][cA][dB] | 
[V:2] A,,A,E, | 
[V:1] [B2G2](3F/G/F/ & z!accent!D2 | 
[V:2] xB,2 & E,,B,E, | 
[V:1] [E2C2]!accent![fd] | 
[V:2] A,,A,E, | 
[V:1] [d2B2](3F/G/F/ & z!accent!D2 | 
[V:2] xG,2 & E,,G,E, | 
[V:1] [EC][cA][dB] | 
[V:2] A,,A,E, | 
[V:1] [B2G2](3F/G/F/ & z!accent!D2 | 
[V:2] xB,2 & E,,B,E, | 
[V:1] [EC][cA][fd] | 
[V:2] A,,A,E, | 
[V:1] [d2B2](3F/G/F/ & z!accent!D2 | 
[V:2] xG,2 & E,,G,E, | 
[V:1] [EC][cA][dB] | 
[V:2] A,,A,E, | 
[V:1] [B2G2](3F/G/F/ & z!accent!D2 | 
[V:2] xB,2 & E,,B,E, | 
[V:1] [E2C2]c | 
[V:2] A,,2z | 
[V:1] [c=E]!accent![cE]=B/c/ | 
[V:2] [G,C,][G,2C,2] | 
[V:1] [dF]!accent![dF]=c/d/ | 
[V:2] [A,_C,][A,2C,2] | 
[V:1] [=dF][dF]c/d/ | 
[V:2] [B,B,,][B,2B,,2] | 
[V:1] [eG]!accent![eG]=d/e/ | 
[V:2] [B,E,][B,2E,2] | 
[V:1] [=eG]!accent![eG]=d/e/ | 
[V:2] [CC,][C2C,2] | 
[V:1] [fA][fA]=e/f/ | 
[V:2] [CF,][C2F,2] | 
[V:1] [gB][gB]f/g/ | 
[V:2] [EE,][E2E,2] | 
[V:1] [ac]!fermata![b/d/] !fermata!z/[fd] | 
[V:2] [EA,]!fermata![E/G,/] !fermata!z/z | 
[V:1] [d2B2](3F/G/F/ & zD2 | 
[V:2] xG,2 & E,,G,E, | 
[V:1] [EC][cA][dB] | 
[V:2] A,,A,E, | 
[V:1] [B2G2](3F/G/F/ & z!accent!D2 | 
[V:2] xB,2 & E,,B,E, | 
[V:1] [EC][cA][fd] | 
[V:2] A,,A,E, | 
[V:1] [d2B2](3F/G/F/ & zD2 | 
[V:2] xG,2 & E,,G,E, | 
[V:1] [EC][cA][dB] | 
[V:2] A,,A,E, | 
[V:1] [B2G2](3F/G/F/ & z!accent!D2 | 
[V:2] xB,2 & F,,B,E, | 
[V:1] [E2C2]c | 
[V:2] A,,2z | 
[V:1] [c=E][cE]=B/c/ | 
[V:2] [G,C,][G,2C,2] | 
[V:1] [dF]!accent![dF]=c/d/ | 
[V:2] [A,_C,][A,2C,2] | 
[V:1] [=dF][dF]c/d/ | 
[V:2] [B,B,,][B,2B,,2] | 
[V:1] [eG]!accent![eG]=d/e/ | 
[V:2] [B,E,][B,2E,2] | 
[V:1] [=eG]!accent![eG]=d/e/ | 
[V:2] [CC,][C2C,2] | 
[V:1] [fA]!accent![fA]=e/f/ | 
[V:2] [CF,][C2F,2] | 
[V:1] [gB][gB]f/g/ | 
[V:2] [EE,][E2E,2] | 
[V:1] [ac]!fermata![b/d/] !fermata!z/[fd] | 
[V:2] [EA,]!fermata![E/G,/] !fermata!z/z | 
[V:1] [d2B2](3F/G/F/ & zD2 | 
[V:2] xG,2 & E,,G,E, | 
[V:1] [EC][cA][dB] | 
[V:2] A,,A,E, | 
[V:1] [B2G2](3F/G/F/ & z!accent!D2 | 
[V:2] xB,2 & E,,B,E, | 
[V:1] [EC][cA][fd] | 
[V:2] A,,A,E, | 
[V:1] [d2B2](3F/G/F/ & zD2 | 
[V:2] xG,2 & E,,G,E, | 
[V:1] [EC][cA][dB] | 
[V:2] A,,A,E, | 
[V:1] [B2G2](3F/G/F/ & zD2 | 
[V:2] xB,2 & E,,B,E, | 
[V:1] [E2C2]e/=d/ | 
[V:2] A,,2z | 
[V:1] (3_d/e/d/ c/d/f/e/ | 
[V:2] x[DA,][DA,] & F,3 | 
[V:1] d2c | 
[V:2] x[DG,][CG,] & =E,3 | 
[V:1] z=A/B/c/{/e}d/ | 
[V:2] x[C_G,][CG,] & _E,3 | 
[V:1] c2B | 
[V:2] x[CF,][B,F,] & D,3 | 
[V:1] B>A (3A/G/F/ | 
[V:2] x[B,F,][=B,F,] & =D,3 | 
[V:1] F2E | 
[V:2] x[CA,][CA,] & E,3 | 
[V:1] z{/E} g/f/e/d/ | 
[V:2] E,,[DB,E,][DG,E,] | 
[V:1] =B2c- | 
[V:2] A,,[CA,E,][CA,E,] | 
[V:1] c/d/{/d}b/a/f/d/ | 
[V:2] x[DA,][DA,] & F,3 | 
[V:1] d2c | 
[V:2] x[DG,][CG,] & =E,3 | 
[V:1] (3:2:6=A//B//A//=G//A//c//(3:2:6e//_g//=a//c'//e'//f'// !wedge!_g'/z//=A// | 
[V:2] x[C_G,][CG,] & E,3 | 
[V:1] {/=A}c2B | 
[V:2] x[CF,][B,F,] & D,3 | 
[V:1] B>A (3A/G/F/ | 
[V:2] x[B,F,][=B,F,] & =D,3 | 
[V:1] F2E | 
[V:2] E,,[CA,E,][CA,E,] | 
[V:1] (3E/F/E/ =D/E/[_d/F/][c/G/] | 
[V:2] E,,[DB,E,][DB,E,] | 
[V:1] A2z |]  
[V:2] A,,[CE,]z |]
